X:1
T:the Countess of Seafield
T:the Countess of Seafield
T:William Marshall
C:William Marshall
%%score { 1 | 2 }
L:1/8
M:9/8
K:Bb
V:1 treble nm="LIVELY"
V:2 bass 
V:1
 B3 B2 d fdB | C2 c c2 d efg | B,2 B B2 d fdB | GAB cdB AGF | [B,Bf]3 B2 d fdB | C2 c c2 d efg | %6
 fga bag fed | edc FdA B3 |] Tf3 d2 b fed | e3 c2 d efg | f2 b d2 B f2 d | GAB cdB AGF | %12
 f3 d2 b fed | Te3 c2 d efg | fga bag fed |{f} edc FdA [FB]3 |] %16
V:2
 B,,F,B, B,,F,B, B,,F,B, | E,G,C E,G,C C,G,C | D,F,B, D,F,B, D,F,B, | E,2 D, C,2 =E, F,3 | %4
 B,,F,B, B,,F,B, B,,F,B, | E,G,C E,G,C C,G,C | D,F,B, D,F,B, D,F,B, | E,G,C F,CE [B,D]3 |] %8
 B,DF B,DF B,DF | CEF CEF CEF | B,DF B,DF B,DF | [E,E]2 [D,D] [C,C]2 [=E,C] [F,C]2 z | %12
 B,DF B,DF B,DF | CEF CEF CEF | B,DF B,DF D,F,B, | E,G,C F,CE [B,D]3 |] %16

